X:0245
T:Capt. Ross's Reel.
M:C
L:1/8
Q:1/2=96
I: :: ::
Z:Jack Campin * www.campin.me.uk * 2009
K:G
 D3      B  A>GEA | G/G/G BG  dGBG     |\
 D3     (B TA>G)Ee| de/f/ gB  G/G/G G2:|
(de/f/ g)B TA>GEe |(de/f/ g)d edgd     |\
 e>gdB     TA>G Ee|(de/f/ g)B G/G/G G2:|

